X: 33554
T: Rakes Of Clonmel, The
R: jig
M: 6/8
K: Gdorian
A|:BAG AGF|DEF G2A|BAB c2B|AFE F2f|
{a}fef ded|cAG ABc|dBG (3FED C|1 DEF G2 A:|2 DEF G2 g||
{a}gdg {a}gdc|BGG G2e|~f3 fcB|AFE FGA|
~B3 ~c3|dcB ABc|dBG (3FED C|DEF G2 g:|
~g3 ~g3|afd dde|~f3 g2B|AFE FGA|
~B3 ~c3|dcB ABc|dBG (3FED C|1 DEF G2 g:|2 DEF G2 A||

